img/GH-icon.svg

<svg xmlns="http://www.w3.org/2000/svg" width="88" height="86" fill="none"><path fill="#000" fill-rule="evenodd" d="M44 0C19.69 0 0 19.69 0 44c0 19.47 12.595 35.915 30.085 41.745 2.2.385 3.025-.935 3.025-2.09 0-1.045-.055-4.51-.055-8.195C22 77.495 19.14 72.765 18.26 70.29c-.495-1.265-2.64-5.17-4.51-6.215-1.54-.825-3.74-2.86-.055-2.915 3.465-.055 5.94 3.19 6.765 4.51 3.96 6.655 10.285 4.785 12.815 3.63.385-2.86 1.54-4.785 2.805-5.885-9.79-1.1-20.02-4.895-20.02-21.725 0-4.785 1.705-8.745 4.51-11.825-.44-1.1-1.98-5.61.44-11.66 0 0 3.685-1.155 12.1 4.51 3.52-.99 7.26-1.485 11-1.485s7.48.495 11 1.485c8.415-5.72 12.1-4.51 12.1-4.51 2.42 6.05.88 10.56.44 11.66 2.805 3.08 4.51 6.985 4.51 11.825 0 16.885-10.285 20.625-20.075 21.725 1.595 1.375 2.97 4.015 2.97 8.14 0 5.885-.055 10.615-.055 12.1 0 1.155.825 2.53 3.025 2.09A44.07 44.07 0 0 0 88 44C88 19.69 68.31 0 44 0" clip-rule="evenodd"/></svg>

<svg width="88" height="86" viewBox="0 0 88 86" fill="none" xmlns="http://www.w3.org/2000/svg">
<path fill-rule="evenodd" clip-rule="evenodd" d="M44 0C19.69 0 0 19.69 0 44C0 63.47 12.595 79.915 30.085 85.745C32.285 86.13 33.11 84.81 33.11 83.655C33.11 82.61 33.055 79.145 33.055 75.46C22 77.495 19.14 72.765 18.26 70.29C17.765 69.025 15.62 65.12 13.75 64.075C12.21 63.25 10.01 61.215 13.695 61.16C17.16 61.105 19.635 64.35 20.46 65.67C24.42 72.325 30.745 70.455 33.275 69.3C33.66 66.44 34.815 64.515 36.08 63.415C26.29 62.315 16.06 58.52 16.06 41.69C16.06 36.905 17.765 32.945 20.57 29.865C20.13 28.765 18.59 24.255 21.01 18.205C21.01 18.205 24.695 17.05 33.11 22.715C36.63 21.725 40.37 21.23 44.11 21.23C47.85 21.23 51.59 21.725 55.11 22.715C63.525 16.995 67.21 18.205 67.21 18.205C69.63 24.255 68.09 28.765 67.65 29.865C70.455 32.945 72.16 36.85 72.16 41.69C72.16 58.575 61.875 62.315 52.085 63.415C53.68 64.79 55.055 67.43 55.055 71.555C55.055 77.44 55 82.17 55 83.655C55 84.81 55.825 86.185 58.025 85.745C66.7597 82.796 74.3497 77.1822 79.7268 69.6937C85.1039 62.2052 87.9974 53.219 88 44C88 19.69 68.31 0 44 0Z" fill="black"/>
</svg>
